public/static/img/bank/card_type_c.svg

<svg width="34" height="36" viewBox="0 0 34 36" fill="none" xmlns="http://www.w3.org/2000/svg">
<path d="M15.7539 1.91221C15.7539 1.91221 18.7142 -0.355788 23.8027 1.29329C23.8027 1.29329 25.5155 1.91221 27.4885 3.66513L33.6155 10.0593L30.345 13.309L20.9988 3.87144C20.9988 3.87144 19.4411 1.96344 15.7539 1.91221ZM29.2539 14.443L25.4116 18.1551C25.4116 18.1551 24.7885 19.033 24.2693 18.2078L17.2078 11.3497C17.2078 11.3497 16.5847 10.5245 16.1181 11.2459L9.00392 18.4653C9.00392 18.4653 8.5373 19.1867 9.10776 19.4968L16.0655 26.4061C16.0655 26.4061 16.6373 27.3337 17.1565 26.6124L24.3731 19.393C24.3731 19.393 24.5808 18.7741 25.7231 18.9291H33.0962C33.0962 18.9291 33.4078 26.3548 27.6962 30.9961C27.6962 30.9961 20.2719 38.3691 10.095 33.8317C10.095 33.8317 0.282226 30.4284 0.386072 17.7951C0.386072 17.7951 0.644996 9.3379 8.38084 4.85175C8.38084 4.85175 14.0412 0.674366 18.5578 3.76898L29.2539 14.443Z" fill="#003A90"/>
</svg>

<svg width="34" height="36" fill="none" xmlns="http://www.w3.org/2000/svg"><path d="M15.754 1.912s2.96-2.268 8.049-.619c0 0 1.712.62 3.685 2.372l6.127 6.394-3.27 3.25-9.346-9.438s-1.558-1.908-5.245-1.959Zm13.5 12.531-3.842 3.712s-.623.878-1.143.053l-7.061-6.858s-.623-.825-1.09-.104l-7.114 7.22s-.467.72.104 1.03l6.957 6.91s.572.928 1.091.206l7.217-7.219s.208-.619 1.35-.464h7.373s.312 7.426-5.4 12.067c0 0-7.424 7.373-17.601 2.836 0 0-9.813-3.404-9.709-16.037 0 0 .259-8.457 7.995-12.943 0 0 5.66-4.178 10.177-1.083l10.696 10.674Z" fill="#003A90"/></svg>
